src/assets/icons/mastercard.svg

<svg width="32" height="22" viewBox="0 0 32 22" fill="none" xmlns="http://www.w3.org/2000/svg">
<path d="M19.2982 5.2345H12.6843V16.7654H19.2982V5.2345Z" fill="#FF5F00"/>
<path d="M13.1043 10.9999C13.1032 9.88944 13.3626 8.79325 13.8628 7.79437C14.363 6.7955 15.0908 5.92011 15.9913 5.23449C14.8762 4.38416 13.537 3.85535 12.1268 3.70851C10.7166 3.56166 9.2923 3.8027 8.01664 4.40409C6.74097 5.00547 5.66544 5.94294 4.91297 7.10932C4.16051 8.2757 3.76147 9.62394 3.76147 10.9999C3.76147 12.376 4.16051 13.7242 4.91297 14.8906C5.66544 16.057 6.74097 16.9944 8.01664 17.5958C9.2923 18.1972 10.7166 18.4382 12.1268 18.2914C13.537 18.1445 14.8762 17.6157 15.9913 16.7654C15.0908 16.0798 14.363 15.2044 13.8628 14.2055C13.3626 13.2066 13.1032 12.1105 13.1043 10.9999Z" fill="#EB001B"/>
<path d="M28.2207 10.9999C28.2207 12.3759 27.8217 13.7242 27.0693 14.8906C26.3169 16.0569 25.2414 16.9944 23.9657 17.5958C22.6901 18.1972 21.2658 18.4382 19.8556 18.2914C18.4454 18.1445 17.1063 17.6157 15.9913 16.7654C16.8909 16.0791 17.6182 15.2036 18.1183 14.2048C18.6184 13.2061 18.8782 12.1103 18.8782 10.9999C18.8782 9.88961 18.6184 8.79377 18.1183 7.79505C17.6182 6.79633 16.8909 5.92081 15.9913 5.23449C17.1063 4.38416 18.4454 3.85535 19.8556 3.70851C21.2658 3.56166 22.6901 3.80271 23.9657 4.40411C25.2414 5.0055 26.3169 5.94296 27.0693 7.10934C27.8217 8.27572 28.2207 9.62396 28.2207 10.9999Z" fill="#F79E1B"/>
<path d="M27.4995 15.5442V15.3081H27.5976V15.26H27.3477V15.3081H27.4459V15.5442H27.4995ZM27.9846 15.5442V15.2595H27.908L27.8199 15.4553L27.7318 15.2595H27.6551V15.5442H27.7092V15.3295L27.7919 15.5146H27.8479L27.9306 15.329V15.5442H27.9846Z" fill="#F79E1B"/>
</svg>

<svg xmlns="http://www.w3.org/2000/svg" width="32" height="22" fill="none"><path fill="#FF5F00" d="M19.298 5.234h-6.614v11.531h6.614V5.235Z"/><path fill="#EB001B" d="M13.104 11a7.14 7.14 0 0 1 .759-3.206 7.367 7.367 0 0 1 2.128-2.56 7.688 7.688 0 0 0-3.864-1.525 7.762 7.762 0 0 0-4.11.695A7.485 7.485 0 0 0 4.913 7.11 7.173 7.173 0 0 0 3.761 11c0 1.377.4 2.725 1.152 3.892a7.485 7.485 0 0 0 3.104 2.705c1.275.601 2.7.842 4.11.695a7.688 7.688 0 0 0 3.864-1.526 7.366 7.366 0 0 1-2.128-2.56A7.14 7.14 0 0 1 13.104 11Z"/><path fill="#F79E1B" d="M28.22 11a7.173 7.173 0 0 1-1.15 3.89 7.485 7.485 0 0 1-3.104 2.706 7.762 7.762 0 0 1-4.11.695 7.687 7.687 0 0 1-3.865-1.526 7.38 7.38 0 0 0 2.127-2.56c.5-.999.76-2.095.76-3.205 0-1.11-.26-2.206-.76-3.205a7.381 7.381 0 0 0-2.127-2.56 7.687 7.687 0 0 1 3.865-1.526 7.762 7.762 0 0 1 4.11.695 7.484 7.484 0 0 1 3.103 2.705A7.173 7.173 0 0 1 28.221 11ZM27.5 15.544v-.236h.098v-.048h-.25v.048h.098v.236h.053Zm.485 0v-.285h-.077l-.088.196-.088-.196h-.077v.285h.054v-.215l.083.186h.056l.083-.186v.215h.054Z"/></svg>
